Newaita-dark/.LP/16/software-update-urgent.svg

<?xml version="1.0" encoding="UTF-8"?>
<svg xmlns="http://www.w3.org/2000/svg" xmlns:xlink="http://www.w3.org/1999/xlink" width="16px" height="16px" viewBox="0 0 16 16" version="1.1">
<g id="surface1">
<path style=" stroke:none;fill-rule:nonzero;fill:rgb(25.882354%,25.882354%,25.882354%);fill-opacity:1;" d="M 7.9375 2.109375 C 7.324219 2.109375 6.90625 3.960938 6.335938 4.199219 C 5.769531 4.433594 4.164062 3.417969 3.726562 3.851562 C 3.292969 4.289062 4.308594 5.894531 4.074219 6.460938 C 3.835938 7.03125 1.984375 7.449219 1.984375 8.0625 C 1.984375 8.679688 3.835938 9.09375 4.074219 9.664062 C 4.308594 10.234375 3.292969 11.835938 3.726562 12.273438 C 4.164062 12.707031 5.769531 11.691406 6.335938 11.929688 C 6.90625 12.164062 7.324219 14.015625 7.9375 14.015625 C 8.554688 14.015625 8.96875 12.164062 9.539062 11.929688 C 10.109375 11.691406 11.710938 12.707031 12.148438 12.273438 C 12.582031 11.835938 11.566406 10.234375 11.804688 9.664062 C 12.039062 9.09375 13.890625 8.679688 13.890625 8.0625 C 13.890625 7.449219 12.039062 7.03125 11.804688 6.460938 C 11.566406 5.894531 12.582031 4.289062 12.148438 3.851562 C 11.710938 3.417969 10.109375 4.433594 9.539062 4.199219 C 8.96875 3.960938 8.554688 2.109375 7.9375 2.109375 Z M 7.9375 5.085938 C 8.304688 5.085938 8.601562 5.382812 8.601562 5.746094 L 8.601562 8.394531 C 8.601562 8.761719 8.304688 9.054688 7.9375 9.054688 C 7.570312 9.054688 7.277344 8.761719 7.277344 8.394531 L 7.277344 5.746094 C 7.277344 5.382812 7.570312 5.085938 7.9375 5.085938 Z M 7.9375 9.71875 C 8.304688 9.71875 8.601562 10.011719 8.601562 10.378906 C 8.601562 10.746094 8.304688 11.039062 7.9375 11.039062 C 7.570312 11.039062 7.277344 10.746094 7.277344 10.378906 C 7.277344 10.011719 7.570312 9.71875 7.9375 9.71875 Z M 7.9375 9.71875 "/>
</g>
</svg>

<svg xmlns="http://www.w3.org/2000/svg" width="16pt" height="16pt" viewBox="0 0 16 16"><path d="M7.938 2.11c-.965 0-.723 1.683-1.614 2.054-.894.371-1.914-.996-2.597-.312-.684.683.683 1.703.312 2.597-.371.89-2.055.649-2.055 1.614 0 .968 1.684.722 2.055 1.617.371.89-.996 1.91-.312 2.593.683.684 1.703-.68 2.597-.308.89.367.649 2.05 1.614 2.05.968 0 .722-1.683 1.617-2.05.89-.371 1.91.992 2.593.308.684-.683-.68-1.703-.308-2.593.367-.895 2.05-.649 2.05-1.617 0-.965-1.683-.723-2.05-1.614-.371-.894.992-1.914.308-2.597-.683-.684-1.703.683-2.593.312-.895-.371-.649-2.055-1.617-2.055zm0 2.644c.367 0 .664.297.664.664v2.977a.66.66 0 0 1-.665.66.657.657 0 0 1-.66-.66V5.418a.66.66 0 0 1 .66-.664zm0 5.293a.663.663 0 1 1 0 0zm0 0" fill="#424242"/></svg>
